src/components/common/AdvancedFilter/icons/covid.svg

<?xml version="1.0" encoding="UTF-8" standalone="no"?> <!-- Created with Vectornator for iOS (http://vectornator.io/) --><!DOCTYPE svg PUBLIC "-//W3C//DTD SVG 1.1//EN" "http://www.w3.org/Graphics/SVG/1.1/DTD/svg11.dtd">
<svg height="100%" style="fill-rule:evenodd;clip-rule:evenodd;stroke-linecap:round;stroke-linejoin:round;" xmlns:xlink="http://www.w3.org/1999/xlink" xmlns="http://www.w3.org/2000/svg" xml:space="preserve" width="100%" xmlns:vectornator="http://vectornator.io" version="1.1" viewBox="0 0 297.675 209.79">
<metadata>
<vectornator:setting key="DisplayWhiteBackground" value="0"/>
<vectornator:setting key="RulersVisible" value="1"/>
<vectornator:setting key="GridSpacing" value="36"/>
<vectornator:setting key="Units" value="Millimeters"/>
<vectornator:setting key="DynamicGuides" value="0"/>
<vectornator:setting key="SnapToPoints" value="0"/>
<vectornator:setting key="SnapToGrid" value="0"/>
<vectornator:setting key="SnapToGuides" value="1"/>
<vectornator:setting key="SnapToEdges" value="0"/>
</metadata>
<defs/>
<g id="Layer 1" vectornator:layerName="Layer 1">
<path d="M137.516+66.591C133.538+66.591+130.262+69.8678+130.262+73.8459C130.262+76.9743+132.298+79.6389+135.098+80.6473L135.098+86.1828C133.563+86.4979+132.151+87.1379+130.885+87.9777L125.255+82.3476C125.366+81.9411+125.423+81.522+125.425+81.1007C125.425+78.4295+123.26+76.2641+120.589+76.2641C117.917+76.2641+115.752+78.4295+115.752+81.1007C115.752+83.7718+117.917+85.9372+120.589+85.9372C121.01+85.9351+121.429+85.8779+121.835+85.7672L127.465+91.3973C126.625+92.6626+126.005+94.0762+125.69+95.6103L120.74+95.6103C119.731+92.8098+117.067+90.7738+113.938+90.7738C109.96+90.7738+106.683+94.0505+106.683+98.0286C106.683+102.007+109.96+105.283+113.938+105.283C117.067+105.283+119.731+103.247+120.74+100.447L125.69+100.447C126.005+101.981+126.625+103.395+127.465+104.66L121.835+110.29C121.429+110.179+121.01+110.122+120.589+110.12C117.917+110.12+115.752+112.285+115.752+114.957C115.752+117.628+117.917+119.793+120.589+119.793C123.26+119.793+125.425+117.628+125.425+114.957C125.423+114.535+125.366+114.116+125.255+113.71L130.885+108.08C132.151+108.919+133.563+109.559+135.098+109.874L135.098+115.41C132.298+116.418+130.262+119.083+130.262+122.211C130.262+126.189+133.538+129.466+137.516+129.466C141.495+129.466+144.771+126.189+144.771+122.211C144.771+119.083+142.735+116.418+139.935+115.41L139.935+109.874C141.465+109.56+142.875+108.925+144.138+108.089L149.778+113.729C149.669+114.129+149.612+114.542+149.608+114.957C149.608+117.628+151.773+119.793+154.444+119.793C157.116+119.793+159.281+117.628+159.281+114.957C159.281+112.285+157.116+110.12+154.444+110.12C154.017+110.12+153.591+110.178+153.179+110.29L147.558+104.669C148.402+103.401+149.027+101.985+149.343+100.447L154.898+100.447C155.906+103.247+158.571+105.283+161.699+105.283C165.677+105.283+168.954+102.007+168.954+98.0286C168.954+94.0505+165.677+90.7738+161.699+90.7738C158.571+90.7738+155.906+92.8098+154.898+95.6103L149.343+95.6103C149.028+94.0762+148.408+92.6626+147.567+91.3973L153.207+85.7672C153.61+85.8771+154.026+85.9343+154.444+85.9372C157.116+85.9372+159.281+83.7718+159.281+81.1007C159.281+78.4295+157.116+76.2641+154.444+76.2641C151.773+76.2641+149.608+78.4295+149.608+81.1007C149.61+81.522+149.667+81.9411+149.778+82.3476L144.148+87.9777C142.882+87.1379+141.469+86.4979+139.935+86.1828L139.935+80.6473C142.735+79.6389+144.771+76.9743+144.771+73.8459C144.771+69.8678+141.495+66.591+137.516+66.591ZM137.516+71.4276C138.881+71.4276+139.935+72.4816+139.935+73.8459C139.935+75.2101+138.881+76.2641+137.516+76.2641C136.152+76.2641+135.098+75.2101+135.098+73.8459C135.098+72.4816+136.152+71.4276+137.516+71.4276ZM113.938+95.6103C115.302+95.6103+116.357+96.6644+116.357+98.0286C116.357+99.3928+115.302+100.447+113.938+100.447C112.574+100.447+111.52+99.3928+111.52+98.0286C111.52+96.6644+112.574+95.6103+113.938+95.6103ZM161.699+95.6103C163.063+95.6103+164.117+96.6644+164.117+98.0286C164.117+99.3928+163.063+100.447+161.699+100.447C160.335+100.447+159.281+99.3928+159.281+98.0286C159.281+96.6644+160.335+95.6103+161.699+95.6103ZM137.516+119.793C138.881+119.793+139.935+120.847+139.935+122.211C139.935+123.576+138.881+124.63+137.516+124.63C136.152+124.63+135.098+123.576+135.098+122.211C135.098+120.847+136.152+119.793+137.516+119.793Z" opacity="1" fill="#ffffff"/>
</g>
</svg>

<svg xmlns="http://www.w3.org/2000/svg" xmlns:vectornator="http://vectornator.io" viewBox="0 0 297.675 209.79" fill-rule="evenodd" clip-rule="evenodd" stroke-linecap="round" stroke-linejoin="round"><path d="M137.516 66.591c-3.978 0-7.254 3.277-7.254 7.255 0 3.128 2.036 5.793 4.836 6.801v5.536c-1.535.315-2.947.955-4.213 1.795l-5.63-5.63a4.82 4.82 0 00.17-1.247 4.836 4.836 0 10-4.836 4.836c.421-.002.84-.06 1.246-.17l5.63 5.63a11.954 11.954 0 00-1.775 4.213h-4.95c-1.009-2.8-3.673-4.836-6.802-4.836-3.978 0-7.255 3.276-7.255 7.255 0 3.978 3.277 7.254 7.255 7.254 3.129 0 5.793-2.036 6.802-4.836h4.95a11.953 11.953 0 001.775 4.213l-5.63 5.63a4.812 4.812 0 00-1.246-.17 4.836 4.836 0 104.836 4.837 4.813 4.813 0 00-.17-1.247l5.63-5.63c1.266.839 2.678 1.479 4.213 1.794v5.536c-2.8 1.008-4.836 3.673-4.836 6.801 0 3.978 3.276 7.255 7.254 7.255 3.979 0 7.255-3.277 7.255-7.255 0-3.128-2.036-5.793-4.836-6.801v-5.536c1.53-.314 2.94-.949 4.203-1.785l5.64 5.64a4.85 4.85 0 00-.17 1.228 4.836 4.836 0 109.673 0 4.836 4.836 0 00-6.102-4.667l-5.621-5.621a11.952 11.952 0 001.785-4.222h5.555c1.008 2.8 3.673 4.836 6.801 4.836 3.978 0 7.255-3.276 7.255-7.254 0-3.978-3.277-7.255-7.255-7.255-3.128 0-5.793 2.036-6.801 4.836h-5.555a11.938 11.938 0 00-1.776-4.213l5.64-5.63c.403.11.819.167 1.237.17a4.836 4.836 0 10-4.836-4.836c.002.421.059.84.17 1.247l-5.63 5.63c-1.266-.84-2.679-1.48-4.213-1.795v-5.536c2.8-1.008 4.836-3.673 4.836-6.801 0-3.978-3.276-7.255-7.255-7.255zm0 4.837a2.383 2.383 0 012.419 2.418 2.383 2.383 0 01-2.419 2.418 2.382 2.382 0 01-2.418-2.418 2.382 2.382 0 012.418-2.418zM113.938 95.61a2.383 2.383 0 012.419 2.419 2.383 2.383 0 01-2.419 2.418 2.383 2.383 0 01-2.418-2.418 2.382 2.382 0 012.418-2.419zm47.761 0a2.382 2.382 0 012.418 2.419 2.383 2.383 0 01-2.418 2.418 2.383 2.383 0 01-2.418-2.418 2.382 2.382 0 012.418-2.419zm-24.183 24.183a2.383 2.383 0 012.419 2.418 2.383 2.383 0 01-2.419 2.419 2.383 2.383 0 01-2.418-2.419 2.382 2.382 0 012.418-2.418z" fill="#fff" vectornator:layerName="Layer 1"/></svg>
